svgs/light/square-e.svg

<svg xmlns="http://www.w3.org/2000/svg" viewBox="0 0 448 512"><!--! Font Awesome Pro 6.6.0 by @fontawesome - https://fontawesome.com License - https://fontawesome.com/license (Commercial License) Copyright 2024 Fonticons, Inc. --><path d="M64 64C46.3 64 32 78.3 32 96l0 320c0 17.7 14.3 32 32 32l320 0c17.7 0 32-14.3 32-32l0-320c0-17.7-14.3-32-32-32L64 64zM0 96C0 60.7 28.7 32 64 32l320 0c35.3 0 64 28.7 64 64l0 320c0 35.3-28.7 64-64 64L64 480c-35.3 0-64-28.7-64-64L0 96zm160 32l144 0c8.8 0 16 7.2 16 16s-7.2 16-16 16l-144 0 0 80 112 0c8.8 0 16 7.2 16 16s-7.2 16-16 16l-112 0 0 80 144 0c8.8 0 16 7.2 16 16s-7.2 16-16 16l-144 0c-17.7 0-32-14.3-32-32l0-96 0-96c0-17.7 14.3-32 32-32z"/></svg>

<svg xmlns="http://www.w3.org/2000/svg" viewBox="0 0 448 512"><!--! Font Awesome Pro 6.4.0 by @fontawesome - https://fontawesome.com License - https://fontawesome.com/license (Commercial License) Copyright 2023 Fonticons, Inc. --><path d="M64 64C46.3 64 32 78.3 32 96V416c0 17.7 14.3 32 32 32H384c17.7 0 32-14.3 32-32V96c0-17.7-14.3-32-32-32H64zM0 96C0 60.7 28.7 32 64 32H384c35.3 0 64 28.7 64 64V416c0 35.3-28.7 64-64 64H64c-35.3 0-64-28.7-64-64V96zm160 32H304c8.8 0 16 7.2 16 16s-7.2 16-16 16H160v80H272c8.8 0 16 7.2 16 16s-7.2 16-16 16H160v80H304c8.8 0 16 7.2 16 16s-7.2 16-16 16H160c-17.7 0-32-14.3-32-32V256 160c0-17.7 14.3-32 32-32z"/></svg>
